X: 1
T:Nancy
R:Reel
O:England
M:4/4
C:Tom Clough
A:Northumbria
K:D
dc|\
d2D2 F2A2|d2fe d3A|d2ef gfed|c2e2 A2Bc|\
d2D2 F2A2|d2fe d2A2|B2g2 fedc|d6:|
|: fg|\
a3b a2f2|g3a g2e2|f2f2 gfed|c2e2 A2Bc|\
d2D2 F2A2|d2fe d2A2|B2g2 fedc|d6 :|
|: A2|\
dcBA GFED|FDFB d2A2|dcde gfed|cdec A2AA|\
dcBA GFED|FDFA d2A2|
B2g2 fedc|d6:: A2|\
aA Aa AA aA| \
gc cg cc gc| \
dcde gfed|cdec A2Bc|
dcBA GFED|FDFA d2A2|B2g2 fedc|d6:|
